X: 694
T: John Henry
B: jims roots
M:2/2
L:1/8
Q: 1/2=100
K:Gmaj
V:1 
de | "G"g2 ga gede | g2ga g2ed | g2 ge gedg | "D"e2d2 e2 de |
g2 ga gedg | edB2A2 GA | [G2B2]AG EDE-G | [GA]-[G2B2](A [G2B2])BA |
GBAG "D"ED E2 | "G"G3G G2([GB]A) | GBAG ED E-G | [GA]-[G2B2](A [G2B2])BA |
GBAG "(D)"ED E2 | "G"G3G G2 ||
% abcbook-tune_id 6298c25d0579acd6ad7e7862


% abcbook-boost 0
% abcbook-tablature 
% abcbook-transpose 
% abcbook-lastupdated 1654178399257
% abcbook-soundfonts 
% abcbook-repeats 1


